X:370
T:McFadden's Own
R:reel
Z:Transcribed by Dave Marshall
M:C|
K:D
| F2ED E~A,3 | DFAF DFdB | AGFD EFGA | BGAG FDD2 |
F2ED E~A,3 | DFAF G2GB | AGFD EFGA | BGAG FDD2 |
| dAFA d2fe | dAFA B~E3 | dAFA dgfe | dABG FDD2 |
d2dc defe | dBcA B~E3 | dcBc dbaf | dBAG FDD2 |

